icons/24x24_sign_outline.svg

<svg xmlns="http://www.w3.org/2000/svg" width="24" height="24" viewBox="0 0 24 24">
  <path fill-rule="evenodd" d="M7.72474392,13.271 L7.12274392,15.876 L9.72874392,15.276 L16.0577439,8.947 L14.0537439,6.942 L7.72474392,13.271 Z M17.0157439,3.98 L15.2907439,5.705 L17.2947439,7.709 L19.0197439,5.984 C19.2197439,5.785 19.2497439,5.551 19.2497439,5.43 C19.2497439,5.309 19.2197439,5.076 19.0197439,4.876 L18.1237439,3.98 C17.9247439,3.78 17.6907439,3.75 17.5697439,3.75 C17.4487439,3.75 17.2157439,3.78 17.0157439,3.98 Z M10.6117439,16.868 L5.77574392,17.984 C5.72674392,17.995 5.67874392,18 5.63074392,18 C5.23774392,18 4.92274392,17.631 5.01674392,17.224 L6.13274392,12.389 L15.7787439,2.743 C16.2727439,2.248 16.9217439,2 17.5697439,2 C18.2187439,2 18.8667439,2.248 19.3617439,2.743 L20.2577439,3.639 C21.2467439,4.628 21.2467439,6.232 20.2577439,7.222 L10.6117439,16.868 Z M4,19 L20,19 C20.5522847,19 21,19.4477153 21,20 C21,20.5522847 20.5522847,21 20,21 L4,21 C3.44771525,21 3,20.5522847 3,20 C3,19.4477153 3.44771525,19 4,19 Z"/>
</svg>

<svg width="24" height="24" fill="none" xmlns="http://www.w3.org/2000/svg"><path fill-rule="evenodd" clip-rule="evenodd" d="m7.725 13.271-.602 2.605 2.606-.6 6.329-6.329-2.004-2.005-6.33 6.329Zm9.29-9.291-1.724 1.725 2.004 2.004 1.725-1.725a.779.779 0 0 0 0-1.108l-.896-.896a.779.779 0 0 0-1.108 0Zm-6.403 12.888-4.836 1.116a.633.633 0 0 1-.759-.76l1.116-4.835 9.646-9.646A2.524 2.524 0 0 1 17.569 2c.65 0 1.298.248 1.793.743l.896.896a2.534 2.534 0 0 1 0 3.583l-9.646 9.646ZM4 19h16a1 1 0 1 1 0 2H4a1 1 0 1 1 0-2Z" fill="#000"/></svg>
